X:490
T:Ouce moje, ouce
Z:Jack Campin, http://www.campin.me.uk/
F:Jack Campin's Nine-Note Tunebook
% last edit 26-02-2013
S:Slovenske Ludove Pienske v.3
M:2/4
L:1/8
Q:1/4=88
K:EMin
EF G2|G2 GG|BB AG|F2 E2|
GA B2|B2 Bd|dd cB|A2 G2|
BB B2|A2 AA|AB A2|B2 BB|
AG AG|F2 E2|B2 BB|AG F2|E2 z2|]

